;Generated by Cura LulzBot Edition GCodeWriter Version: 3.6.18
;FLAVOR:Marlin
;TIME:9643
;Filament used: 5.00971m
;Layer height: 0.38
;Generated with Cura_SteamEngine 3.6.18
M82 ;absolute extrusion mode
;This G-Code has been generated specifically for the LulzBot Mini with standard extruder
M73 P0 ; clear GLCD progress bar
M75 ; Start GLCD Timer
G26 ; clear potential 'probe fail' condition
M107 ; disable fans
M420 S0 ; disable leveling matrix
G90 ; absolute positioning
M82 ; set extruder to absolute mode
G92 E0 ; set extruder position to 0
M140 S60.0 ; start bed heating up
G28 ; home all axes
G0 X0 Y187 Z156 F200 ; move away from endstops
M109 R140 ;
G1 E-30 F75 ; retract filament
M109 R140 ; wait for extruder to reach wiping temp
G1 X45 Y173 F11520 ; move above wiper pad
G1 Z0 F1200 ; push nozzle into wiper
G1 X42 Y173 Z-.5 F4000             ; wiping
G1 X52 Y171 Z-.5 F4000             ; wiping
G1 X42 Y173 Z0 F4000               ; wiping
G1 X52 Y171 F4000                  ; wiping
G1 X42 Y173 F4000                  ; wiping
G1 X52 Y171 F4000                  ; wiping
G1 X42 Y173 F4000                  ; wiping
G1 X52 Y171 F4000                  ; wiping
G1 X57 Y173 F4000                  ; wiping
G1 X77 Y171 F4000                  ; wiping
G1 X57 Y173 F4000                  ; wiping
G1 X77 Y171 F4000                  ; wiping
G1 X57 Y173 F4000                  ; wiping
G1 X87 Y171 F4000                  ; wiping
G1 X77 Y173 F4000                  ; wiping
G1 X97 Y171 F4000                  ; wiping
G1 X77 Y173 F4000                  ; wiping
G1 X97 Y171 F4000                  ; wiping
G1 X77 Y173 F4000                  ; wiping
G1 X97 Y171 F4000                  ; wiping
G1 X107 Y173 F4000                 ; wiping
G1 X97 Y171 F4000                  ; wiping
G1 X107 Y173 F4000                 ; wiping
G1 X97 Y171 F4000                  ; wiping
G1 X107 Y173 F4000                 ; wiping
G1 X112 Y171 Z-0.5 F1000           ; wiping
G1 Z10 ; raise extruder
G28 X0 Y0 ; home X and Y
G0 X0 Y187 F200 ; move away from endstops
M109 R140 ; wait for extruder to reach probe temp
M204 S300 ; set probing acceleration
G29       ; start auto-leveling sequence
M420 S1   ; enable leveling matrix
M425 Z	  ; use measured Z backlash for compensation
M425 Z F0 ; turn off measured Z backlash compensation. (if activated in the quality settings, this command will automatically be ignored)
M204 S2000 ; restore standard acceleration
G28 X0 Y0 ; re-home to account for build variance of earlier mini builds
G0 X0 Y187 F200 ; move away from endstops
G0 Y152 F4000 ; move in front of wiper pad
G4 S1 ; pause
M400 ; wait for moves to finish
M117 Heating... ; progress indicator message on LCD
M109 R210  ; wait for extruder to reach printing temp
M190 R60.0 ; wait for bed to reach printing temp
G1 Z2 E0 F75 ; prime tiny bit of filament into the nozzle
M117 Mini Printing... ; progress indicator message on LCD

M221 S100 T0
G92 E0
G1 F600 E-1.75
;LAYER_COUNT:171
;LAYER:0
M107
G0 F2625 X34.017 Y21.464 Z0.425
;TYPE:SKIRT
G1 F600 E0
G1 F900 X34.33 Y21.062 E0.01697
G1 X34.701 Y20.713 E0.03394
G1 X35.123 Y20.427 E0.05092
G1 X35.584 Y20.21 E0.06789
G1 X36.073 Y20.068 E0.08485
G1 X36.733 Y20 E0.10695
G1 X107.268 Y20.001 E2.4565
G1 X107.776 Y20.041 E2.47347
G1 X108.271 Y20.16 E2.49043
G1 X108.742 Y20.355 E2.50741
G1 X109.177 Y20.621 E2.5244
G1 X109.564 Y20.951 E2.54134
G1 X109.946 Y21.41 E2.56123
G1 X112.453 Y25.058 E2.70868
G1 X115.777 Y29.421 E2.89138
G1 X119.346 Y33.592 E3.07424
G1 X123.126 Y37.536 E3.25621
G1 X127.127 Y41.261 E3.43831
G1 X131.114 Y44.59 E3.61132
G1 X131.478 Y44.946 E3.62828
G1 X131.782 Y45.355 E3.64526
G1 X131.996 Y45.754 E3.66034
G1 X134.6 Y51.552 E3.87206
G1 X138.075 Y58.067 E4.11802
G1 X138.279 Y58.534 E4.13499
G1 X138.408 Y59.027 E4.15197
G1 X138.458 Y59.594 E4.17093
G1 X138.47 Y75.015 E4.6846
G1 X138.47 Y75.07 E4.68644
G1 X138.361 Y81.826 E4.91151
G1 X138.593 Y87.279 E5.09332
G1 X139.135 Y92.722 E5.27552
G1 X139.988 Y98.163 E5.45898
G1 X140.559 Y101.025 E5.55619
G1 X140.619 Y101.531 E5.57316
G1 X140.6 Y102.04 E5.59013
G1 X140.501 Y102.54 E5.60711
G1 X140.325 Y103.018 E5.62408
G1 X140.077 Y103.463 E5.64105
G1 X139.762 Y103.863 E5.65801
G1 X139.46 Y104.152 E5.67193
G1 X119.728 Y120.693 E6.5296
G1 X119.313 Y120.988 E6.54656
G1 X118.857 Y121.216 E6.56355
G1 X118.371 Y121.369 E6.58052
G1 X117.64 Y121.452 E6.60502
G1 X28.375 Y121.452 E9.57847
G1 X27.867 Y121.412 E9.59545
G1 X27.372 Y121.293 E9.61241
G1 X26.901 Y121.098 E9.62939
G1 X26.288 Y120.694 E9.65384
G1 X6.542 Y104.156 E10.51181
G1 X6.178 Y103.799 E10.52879
G1 X5.875 Y103.39 E10.54575
G1 X5.639 Y102.938 E10.56273
G1 X5.477 Y102.455 E10.5797
G1 X5.392 Y101.953 E10.59666
G1 X5.387 Y101.443 E10.61365
G1 X5.461 Y100.939 E10.63062
G1 X5.613 Y100.453 E10.64758
G1 X5.834 Y100.005 E10.66422
G1 X6.835 Y98.32 E10.72951
G1 X9.465 Y93.492 E10.91264
G1 X11.81 Y88.538 E11.09521
G1 X13.886 Y83.427 E11.27897
G1 X14.78 Y80.92 E11.36763
G1 X16.406 Y75.679 E11.55042
G1 X17.736 Y70.338 E11.73376
G1 X18.42 Y66.949 E11.84893
G1 X18.56 Y66.459 E11.8659
G1 X18.821 Y65.916 E11.88597
G1 X20.969 Y62.347 E12.02473
G1 X23.564 Y57.537 E12.20678
G1 X25.903 Y52.547 E12.39035
G1 X26.922 Y50.11 E12.47834
G1 X28.838 Y44.917 E12.66272
G1 X30.441 Y39.676 E12.84528
G1 X31.751 Y34.331 E13.0286
G1 X32.273 Y31.717 E13.11739
G1 X33.128 Y26.256 E13.30151
G1 X33.503 Y22.89 E13.41433
G1 X33.599 Y22.39 E13.43129
G1 X33.772 Y21.911 E13.44825
G1 X34.017 Y21.464 E13.46523
G1 F600 E11.71523
;MESH:
G0 F2625 X36.058 Y24.005
G0 X37.487 Y24.005
G0 X106.457 Y45.939
G0 X106.527 Y46.009
;TYPE:WALL-INNER
G1 F600 E13.46523
G1 F900 X37.473 Y46.009 E15.76545
G1 X37.473 Y23.991 E16.49888
G1 X106.527 Y23.991 E18.79909
G1 X106.527 Y46.009 E19.53252
G0 F2625 X107.027 Y46.509
;TYPE:WALL-OUTER
G1 F900 X36.973 Y46.509 E21.86604
G1 X36.973 Y23.491 E22.63278
G1 X107.027 Y23.491 E24.9663
G1 X107.027 Y46.509 E25.73304
G0 F2625 X106.777 Y46.509
G0 X106.457 Y45.939
G0 X106.037 Y45.519
;TYPE:SKIN
G1 F900 X37.963 Y45.519 E28.00061
G1 X37.963 Y24.481 E28.70139
G1 X106.037 Y24.481 E30.96896
G1 X106.037 Y45.519 E31.66975
G0 F2625 X105.811 Y25.201
G1 F900 X105.316 Y24.706 E31.69306
G0 F2625 X104.609 Y24.706
G1 F900 X105.811 Y25.908 E31.74969
G0 F2625 X105.811 Y26.615
G1 F900 X103.902 Y24.706 E31.83962
G0 F2625 X103.195 Y24.706
G1 F900 X105.811 Y27.322 E31.96285
G0 F2625 X105.811 Y28.029
G1 F900 X102.488 Y24.706 E32.11939
G0 F2625 X101.78 Y24.706
G1 F900 X105.811 Y28.736 E32.30926
G0 F2625 X105.811 Y29.443
G1 F900 X101.073 Y24.706 E32.53243
G0 F2625 X100.366 Y24.706
G1 F900 X105.811 Y30.151 E32.78894
G0 F2625 X105.811 Y30.858
G1 F900 X99.659 Y24.706 E33.07875
G0 F2625 X98.952 Y24.706
G1 F900 X105.811 Y31.565 E33.40186
G0 F2625 X105.811 Y32.272
G1 F900 X98.245 Y24.706 E33.75828
G0 F2625 X97.538 Y24.706
G1 F900 X105.811 Y32.979 E34.148
G0 F2625 X105.811 Y33.686
G1 F900 X96.831 Y24.706 E34.57103
G0 F2625 X96.124 Y24.706
G1 F900 X105.811 Y34.393 E35.02737
G0 F2625 X105.811 Y35.1
G1 F900 X95.416 Y24.706 E35.51703
G0 F2625 X94.709 Y24.706
G1 F900 X105.811 Y35.807 E36.04
G0 F2625 X105.811 Y36.514
G1 F900 X94.002 Y24.706 E36.59627
G0 F2625 X93.295 Y24.706
G1 F900 X105.811 Y37.222 E37.18588
G0 F2625 X105.811 Y37.929
G1 F900 X92.588 Y24.706 E37.80879
G0 F2625 X91.881 Y24.706
G1 F900 X105.811 Y38.636 E38.465
G0 F2625 X105.811 Y39.343
G1 F900 X91.174 Y24.706 E39.15452
G0 F2625 X90.467 Y24.706
G1 F900 X105.811 Y40.05 E39.87734
G0 F2625 X105.811 Y40.757
G1 F900 X89.76 Y24.706 E40.63347
G0 F2625 X89.053 Y24.706
G1 F900 X105.811 Y41.464 E41.42291
G0 F2625 X105.811 Y42.171
G1 F900 X88.345 Y24.706 E42.24567
G0 F2625 X87.638 Y24.706
G1 F900 X105.811 Y42.878 E43.10174
G0 F2625 X105.811 Y43.586
G1 F900 X86.931 Y24.706 E43.99114
G0 F2625 X86.224 Y24.706
G1 F900 X105.811 Y44.293 E44.91384
G0 F2625 X105.811 Y45
G1 F900 X85.517 Y24.706 E45.86985
G0 F2625 X84.81 Y24.706
G1 F900 X105.397 Y45.293 E46.83966
G0 F2625 X104.69 Y45.293
G1 F900 X84.103 Y24.706 E47.80948
G0 F2625 X83.396 Y24.706
G1 F900 X103.983 Y45.293 E48.77929
G0 F2625 X103.276 Y45.293
G1 F900 X82.689 Y24.706 E49.7491
G0 F2625 X81.981 Y24.706
G1 F900 X102.569 Y45.293 E50.71893
G0 F2625 X101.862 Y45.293
G1 F900 X81.274 Y24.706 E51.68877
G0 F2625 X80.567 Y24.706
G1 F900 X101.155 Y45.293 E52.6586
G0 F2625 X100.448 Y45.293
G1 F900 X79.86 Y24.706 E53.62844
G0 F2625 X79.153 Y24.706
G1 F900 X99.74 Y45.293 E54.59825
G0 F2625 X99.033 Y45.293
G1 F900 X78.446 Y24.706 E55.56806
G0 F2625 X77.739 Y24.706
G1 F900 X98.326 Y45.293 E56.53788
G0 F2625 X97.619 Y45.293
G1 F900 X77.032 Y24.706 E57.50769
G0 F2625 X76.325 Y24.706
G1 F900 X96.912 Y45.293 E58.4775
G0 F2625 X96.205 Y45.293
G1 F900 X75.617 Y24.706 E59.44733
G0 F2625 X74.91 Y24.706
G1 F900 X95.498 Y45.293 E60.41717
G0 F2625 X94.791 Y45.293
G1 F900 X74.203 Y24.706 E61.387
G0 F2625 X73.496 Y24.706
G1 F900 X94.084 Y45.293 E62.35684
G0 F2625 X93.376 Y45.293
G1 F900 X72.789 Y24.706 E63.32665
G0 F2625 X72.082 Y24.706
G1 F900 X92.669 Y45.293 E64.29646
G0 F2625 X91.962 Y45.293
G1 F900 X71.375 Y24.706 E65.26627
G0 F2625 X70.668 Y24.706
G1 F900 X91.255 Y45.293 E66.23609
G0 F2625 X90.548 Y45.293
G1 F900 X69.961 Y24.706 E67.2059
G0 F2625 X69.254 Y24.706
G1 F900 X89.841 Y45.293 E68.17571
G0 F2625 X89.134 Y45.293
G1 F900 X68.546 Y24.706 E69.14554
G0 F2625 X67.839 Y24.706
G1 F900 X88.427 Y45.293 E70.11538
G0 F2625 X87.72 Y45.293
G1 F900 X67.132 Y24.706 E71.08521
G0 F2625 X66.425 Y24.706
G1 F900 X87.013 Y45.293 E72.05505
G0 F2625 X86.305 Y45.293
G1 F900 X65.718 Y24.706 E73.02486
G0 F2625 X65.011 Y24.706
G1 F900 X85.598 Y45.293 E73.99467
G0 F2625 X84.891 Y45.293
G1 F900 X64.304 Y24.706 E74.96448
G0 F2625 X63.597 Y24.706
G1 F900 X84.184 Y45.293 E75.9343
G0 F2625 X83.477 Y45.293
G1 F900 X62.89 Y24.706 E76.90411
G0 F2625 X62.182 Y24.706
G1 F900 X82.77 Y45.293 E77.87394
G0 F2625 X82.063 Y45.293
G1 F900 X61.475 Y24.706 E78.84378
G0 F2625 X60.768 Y24.706
G1 F900 X81.356 Y45.293 E79.81361
G0 F2625 X80.649 Y45.293
G1 F900 X60.061 Y24.706 E80.78345
G0 F2625 X59.354 Y24.706
G1 F900 X79.941 Y45.293 E81.75326
G0 F2625 X79.234 Y45.293
G1 F900 X58.647 Y24.706 E82.72307
G0 F2625 X57.94 Y24.706
G1 F900 X78.527 Y45.293 E83.69288
G0 F2625 X77.82 Y45.293
G1 F900 X57.233 Y24.706 E84.6627
G0 F2625 X56.526 Y24.706
G1 F900 X77.113 Y45.293 E85.63251
G0 F2625 X76.406 Y45.293
G1 F900 X55.819 Y24.706 E86.60232
G0 F2625 X55.111 Y24.706
G1 F900 X75.699 Y45.293 E87.57215
G0 F2625 X74.992 Y45.293
G1 F900 X54.404 Y24.706 E88.54199
G0 F2625 X53.697 Y24.706
G1 F900 X74.285 Y45.293 E89.51182
G0 F2625 X73.577 Y45.293
G1 F900 X52.99 Y24.706 E90.48164
G0 F2625 X52.283 Y24.706
G1 F900 X72.87 Y45.293 E91.45145
G0 F2625 X72.163 Y45.293
G1 F900 X51.576 Y24.706 E92.42126
G0 F2625 X50.869 Y24.706
G1 F900 X71.455 Y45.293 E93.39105
G0 F2625 X70.748 Y45.293
G1 F900 X50.162 Y24.706 E94.36084
G0 F2625 X49.455 Y24.706
G1 F900 X70.041 Y45.293 E95.33062
G0 F2625 X69.334 Y45.293
G1 F900 X48.747 Y24.706 E96.30044
G0 F2625 X48.04 Y24.706
G1 F900 X68.627 Y45.293 E97.27025
G0 F2625 X67.92 Y45.293
G1 F900 X47.333 Y24.706 E98.24006
G0 F2625 X46.626 Y24.706
G1 F900 X67.213 Y45.293 E99.20987
G0 F2625 X66.506 Y45.293
G1 F900 X45.919 Y24.706 E100.17968
G0 F2625 X45.212 Y24.706
G1 F900 X65.799 Y45.293 E101.14949
G0 F2625 X65.092 Y45.293
G1 F900 X44.505 Y24.706 E102.11931
G0 F2625 X43.798 Y24.706
G1 F900 X64.384 Y45.293 E103.08909
G0 F2625 X63.677 Y45.293
G1 F900 X43.091 Y24.706 E104.05888
G0 F2625 X42.383 Y24.706
G1 F900 X62.97 Y45.293 E105.02869
G0 F2625 X62.263 Y45.293
G1 F900 X41.676 Y24.706 E105.9985
G0 F2625 X40.969 Y24.706
G1 F900 X61.556 Y45.293 E106.96832
G0 F2625 X60.849 Y45.293
G1 F900 X40.262 Y24.706 E107.93813
G0 F2625 X39.555 Y24.706
G1 F900 X60.142 Y45.293 E108.90794
G0 F2625 X59.435 Y45.293
G1 F900 X38.848 Y24.706 E109.87775
G0 F2625 X38.187 Y24.752
G1 F900 X58.728 Y45.293 E110.8454
G0 F2625 X58.02 Y45.293
G1 F900 X38.187 Y25.459 E111.77971
G0 F2625 X38.187 Y26.166
G1 F900 X57.313 Y45.293 E112.68072
G0 F2625 X56.606 Y45.293
G1 F900 X38.187 Y26.873 E113.54843
G0 F2625 X38.187 Y27.58
G1 F900 X55.899 Y45.293 E114.38283
G0 F2625 X55.192 Y45.293
G1 F900 X38.187 Y28.287 E115.18392
G0 F2625 X38.187 Y28.994
G1 F900 X54.485 Y45.293 E115.95171
G0 F2625 X53.778 Y45.293
G1 F900 X38.187 Y29.702 E116.68617
G0 F2625 X38.187 Y30.409
G1 F900 X53.071 Y45.293 E117.38733
G0 F2625 X52.364 Y45.293
G1 F900 X38.187 Y31.116 E118.05518
G0 F2625 X38.187 Y31.823
G1 F900 X51.656 Y45.293 E118.6897
G0 F2625 X50.949 Y45.293
G1 F900 X38.187 Y32.53 E119.29091
G0 F2625 X38.187 Y33.237
G1 F900 X50.242 Y45.293 E119.85882
G0 F2625 X49.535 Y45.293
G1 F900 X38.187 Y33.944 E120.39343
G0 F2625 X38.187 Y34.651
G1 F900 X48.828 Y45.293 E120.89473
G0 F2625 X48.121 Y45.293
G1 F900 X38.187 Y35.358 E121.36272
G0 F2625 X38.187 Y36.065
G1 F900 X47.414 Y45.293 E121.79741
G0 F2625 X46.707 Y45.293
G1 F900 X38.187 Y36.773 E122.19877
G0 F2625 X38.187 Y37.48
G1 F900 X46 Y45.293 E122.56682
G0 F2625 X45.293 Y45.293
G1 F900 X38.187 Y38.187 E122.90157
G0 F2625 X38.187 Y38.894
G1 F900 X44.585 Y45.293 E123.20299
G0 F2625 X43.878 Y45.293
G1 F900 X38.187 Y39.601 E123.47111
G0 F2625 X38.187 Y40.308
G1 F900 X43.171 Y45.293 E123.70592
G0 F2625 X42.464 Y45.293
G1 F900 X38.187 Y41.015 E123.90742
G0 F2625 X38.187 Y41.722
G1 F900 X41.757 Y45.293 E124.07562
G0 F2625 X41.05 Y45.293
G1 F900 X38.187 Y42.429 E124.21051
G0 F2625 X38.187 Y43.137
G1 F900 X40.343 Y45.293 E124.31208
G0 F2625 X39.636 Y45.293
G1 F900 X38.187 Y43.844 E124.38034
G0 F2625 X38.187 Y44.551
G1 F900 X38.929 Y45.293 E124.41529
G1 X39.017 Y45.381
G1 F600 E122.66529
G0 F2625 X76.345 Y45.989
G0 X76.345 Y47.424
G0 X76.345 Y51.394
G0 X76.345 Y52.829
G0 X76.345 Y61.121
G0 X76.415 Y61.191
;TYPE:WALL-INNER
G1 F600 E124.41529
G1 F900 X63.585 Y61.191 E124.84266
G1 X63.585 Y52.809 E125.12187
G1 X76.415 Y52.809 E125.54924
G1 X76.415 Y61.191 E125.82845
G0 F2625 X76.915 Y61.691
;TYPE:WALL-OUTER
G1 F900 X63.085 Y61.691 E126.28913
G1 X63.085 Y52.309 E126.60165
G1 X76.915 Y52.309 E127.06233
G1 X76.915 Y61.691 E127.37485
G0 F2625 X76.665 Y61.691
G0 X76.345 Y61.121
G0 X75.925 Y60.701
;TYPE:SKIN
G1 F900 X64.075 Y60.701 E127.76958
G1 X64.075 Y53.299 E128.01614
G1 X75.925 Y53.299 E128.41087
G1 X75.925 Y60.701 E128.65743
G0 F2625 X75.699 Y53.779
G1 F900 X75.444 Y53.524 E128.66945
G0 F2625 X74.737 Y53.524
G1 F900 X75.699 Y54.486 E128.71476
G0 F2625 X75.699 Y55.193
G1 F900 X74.03 Y53.524 E128.79339
G0 F2625 X73.323 Y53.524
G1 F900 X75.699 Y55.9 E128.90532
G0 F2625 X75.699 Y56.607
G1 F900 X72.616 Y53.524 E129.05055
G0 F2625 X71.909 Y53.524
G1 F900 X75.699 Y57.314 E129.22909
G0 F2625 X75.699 Y58.021
G1 F900 X71.202 Y53.524 E129.44093
G0 F2625 X70.495 Y53.524
G1 F900 X75.699 Y58.728 E129.68608
G0 F2625 X75.699 Y59.435
G1 F900 X69.787 Y53.524 E129.96456
G0 F2625 X69.08 Y53.524
G1 F900 X75.699 Y60.142 E130.27635
G0 F2625 X75.325 Y60.476
G1 F900 X68.373 Y53.524 E130.60384
G0 F2625 X67.666 Y53.524
G1 F900 X74.618 Y60.476 E130.93133
G0 F2625 X73.911 Y60.476
G1 F900 X66.959 Y53.524 E131.25883
G0 F2625 X66.252 Y53.524
G1 F900 X73.203 Y60.476 E131.5863
G0 F2625 X72.496 Y60.476
G1 F900 X65.545 Y53.524 E131.91377
G0 F2625 X64.838 Y53.524
G1 F900 X71.789 Y60.476 E132.24124
G0 F2625 X71.082 Y60.476
G1 F900 X64.298 Y53.692 E132.56082
G0 F2625 X64.298 Y54.399
G1 F900 X70.375 Y60.476 E132.8471
G0 F2625 X69.668 Y60.476
G1 F900 X64.298 Y55.106 E133.10007
G0 F2625 X64.298 Y55.813
G1 F900 X68.961 Y60.476 E133.31973
G0 F2625 X68.254 Y60.476
G1 F900 X64.298 Y56.52 E133.50609
G0 F2625 X64.298 Y57.227
G1 F900 X67.547 Y60.476 E133.65914
G0 F2625 X66.839 Y60.476
G1 F900 X64.298 Y57.934 E133.77887
G0 F2625 X64.298 Y58.641
G1 F900 X66.132 Y60.476 E133.86529
G0 F2625 X65.425 Y60.476
G1 F900 X64.298 Y59.348 E133.9184
G0 F2625 X64.298 Y60.055
G1 F900 X64.718 Y60.476 E133.93821
G1 F600 E132.18821
G0 F2625 X76.401 Y61.177
G0 X76.401 Y62.606
G0 X76.401 Y66.928
G0 X76.401 Y68.363
G0 X76.997 Y69.527
G0 X76.997 Y69.627
;TYPE:WALL-INNER
G1 F600 E133.93821
G1 F900 X68.769 Y77.807 E134.32469
G1 X68.343 Y78.23 E134.34469
G1 X68.343 Y77.63 E134.35544
G1 X68.343 Y77.629 E134.35548
