;Generated by Cura LulzBot Edition GCodeWriter Version: 3.6.18
;FLAVOR:Marlin
;TIME:10901
;Filament used: 6.70603m
;Layer height: 0.38
;Generated with Cura_SteamEngine 3.6.18
M82 ;absolute extrusion mode
;This G-Code has been generated specifically for the LulzBot Mini with standard extruder
M73 P0 ; clear GLCD progress bar
M75 ; Start GLCD Timer
G26 ; clear potential 'probe fail' condition
M107 ; disable fans
M420 S0 ; disable leveling matrix
G90 ; absolute positioning
M82 ; set extruder to absolute mode
G92 E0 ; set extruder position to 0
M140 S60.0 ; start bed heating up
G28 ; home all axes
G0 X0 Y187 Z156 F200 ; move away from endstops
M109 R140 ;
G1 E-30 F75 ; retract filament
M109 R140 ; wait for extruder to reach wiping temp
G1 X45 Y173 F11520 ; move above wiper pad
G1 Z0 F1200 ; push nozzle into wiper
G1 X42 Y173 Z-.5 F4000             ; wiping
G1 X52 Y171 Z-.5 F4000             ; wiping
G1 X42 Y173 Z0 F4000               ; wiping
G1 X52 Y171 F4000                  ; wiping
G1 X42 Y173 F4000                  ; wiping
G1 X52 Y171 F4000                  ; wiping
G1 X42 Y173 F4000                  ; wiping
G1 X52 Y171 F4000                  ; wiping
G1 X57 Y173 F4000                  ; wiping
G1 X77 Y171 F4000                  ; wiping
G1 X57 Y173 F4000                  ; wiping
G1 X77 Y171 F4000                  ; wiping
G1 X57 Y173 F4000                  ; wiping
G1 X87 Y171 F4000                  ; wiping
G1 X77 Y173 F4000                  ; wiping
G1 X97 Y171 F4000                  ; wiping
G1 X77 Y173 F4000                  ; wiping
G1 X97 Y171 F4000                  ; wiping
G1 X77 Y173 F4000                  ; wiping
G1 X97 Y171 F4000                  ; wiping
G1 X107 Y173 F4000                 ; wiping
G1 X97 Y171 F4000                  ; wiping
G1 X107 Y173 F4000                 ; wiping
G1 X97 Y171 F4000                  ; wiping
G1 X107 Y173 F4000                 ; wiping
G1 X112 Y171 Z-0.5 F1000           ; wiping
G1 Z10 ; raise extruder
G28 X0 Y0 ; home X and Y
G0 X0 Y187 F200 ; move away from endstops
M109 R140 ; wait for extruder to reach probe temp
M204 S300 ; set probing acceleration
G29       ; start auto-leveling sequence
M420 S1   ; enable leveling matrix
M425 Z	  ; use measured Z backlash for compensation
M425 Z F0 ; turn off measured Z backlash compensation. (if activated in the quality settings, this command will automatically be ignored)
M204 S2000 ; restore standard acceleration
G28 X0 Y0 ; re-home to account for build variance of earlier mini builds
G0 X0 Y187 F200 ; move away from endstops
G0 Y152 F4000 ; move in front of wiper pad
G4 S1 ; pause
M400 ; wait for moves to finish
M117 Heating... ; progress indicator message on LCD
M109 R210  ; wait for extruder to reach printing temp
M190 R60.0 ; wait for bed to reach printing temp
G1 Z2 E0 F75 ; prime tiny bit of filament into the nozzle
M117 Mini Printing... ; progress indicator message on LCD

M221 S100 T0
G92 E0
G1 F600 E-1.75
;LAYER_COUNT:171
;LAYER:0
M107
G0 F2625 X35.461 Y34.922 Z0.425
;TYPE:SKIRT
G1 F600 E0
G1 F900 X35.758 Y34.665 E0.01308
G1 X36.86 Y33.824 E0.05926
G1 X41.532 Y30.035 E0.25963
G1 X45.574 Y26.337 E0.44212
G1 X49.39 Y22.428 E0.62409
G1 X52.996 Y18.288 E0.80697
G1 X56.365 Y13.949 E0.98996
G1 X57.954 Y11.717 E1.08122
G1 X58.281 Y11.326 E1.0982
G1 X58.665 Y10.992 E1.11515
G1 X59.097 Y10.721 E1.13214
G1 X59.565 Y10.521 E1.14909
G1 X60.06 Y10.397 E1.16609
G1 X60.601 Y10.352 E1.18417
G1 X79.402 Y10.353 E1.81044
G1 X79.91 Y10.393 E1.82742
G1 X80.406 Y10.512 E1.84441
G1 X80.876 Y10.707 E1.86136
G1 X81.311 Y10.973 E1.87834
G1 X81.849 Y11.464 E1.9026
G1 X84.421 Y14.406 E2.03277
G1 X88.237 Y18.382 E2.21634
G1 X92.247 Y22.113 E2.39879
G1 X94.303 Y23.868 E2.48884
G1 X98.627 Y27.255 E2.6718
G1 X103.112 Y30.376 E2.85381
G1 X107.796 Y33.256 E3.03697
G1 X109.858 Y34.412 E3.11571
G1 X110.356 Y34.756 E3.13587
G1 X115.418 Y39 E3.35591
G1 X119.799 Y42.239 E3.5374
G1 X124.393 Y45.251 E3.72038
G1 X127.812 Y47.27 E3.85264
G1 X128.229 Y47.563 E3.86962
G1 X128.596 Y47.917 E3.88661
G1 X128.967 Y48.43 E3.90769
G1 X130.02 Y50.233 E3.97725
G1 X132.97 Y54.87 E4.16031
G1 X136.153 Y59.297 E4.34194
G1 X143.873 Y68.621 E4.74517
G1 X144.166 Y69.038 E4.76214
G1 X144.391 Y69.495 E4.77911
G1 X144.541 Y69.982 E4.79609
G1 X144.613 Y70.487 E4.81308
G1 X144.606 Y70.996 E4.83003
G1 X144.519 Y71.498 E4.84701
G1 X144.355 Y71.98 E4.86396
G1 X144.117 Y72.431 E4.88095
G1 X143.759 Y72.898 E4.90055
G1 X141.869 Y74.946 E4.99338
G1 X138.331 Y79.13 E5.1759
G1 X135.04 Y83.5 E5.35813
G1 X131.992 Y88.059 E5.54081
G1 X129.225 Y92.756 E5.72239
G1 X126.715 Y97.626 E5.90489
G1 X124.479 Y102.643 E6.08786
G1 X122.548 Y107.732 E6.26917
G1 X120.893 Y112.966 E6.45202
G1 X119.547 Y118.204 E6.63217
G1 X119.382 Y118.686 E6.64914
G1 X119.143 Y119.136 E6.66611
G1 X118.837 Y119.544 E6.6831
G1 X118.472 Y119.898 E6.70004
G1 X118.055 Y120.191 E6.71702
G1 X117.815 Y120.32 E6.72609
G1 X112.084 Y123.093 E6.93817
G1 X109.717 Y124.376 E7.02785
G1 X104.984 Y127.204 E7.21151
G1 X102.742 Y128.674 E7.30081
G1 X98.265 Y131.893 E7.48449
G1 X94.025 Y135.322 E7.66613
G1 X89.937 Y139.027 E7.84991
G1 X88.329 Y140.604 E7.92493
G1 X87.938 Y140.932 E7.94193
G1 X87.501 Y141.194 E7.9589
G1 X87.029 Y141.384 E7.97585
G1 X86.314 Y141.523 E8.00012
G1 X79.385 Y142.081 E8.23167
G1 X73.978 Y142.857 E8.41362
G1 X68.608 Y143.94 E8.5961
G1 X65.973 Y144.589 E8.6865
G1 X60.664 Y146.139 E8.87073
G1 X57.424 Y147.243 E8.98475
G1 X56.931 Y147.369 E9.0017
G1 X56.373 Y147.417 E9.02035
G1 X55.179 Y147.416 E9.06012
G1 X54.671 Y147.376 E9.0771
G1 X54.176 Y147.256 E9.09406
G1 X53.705 Y147.061 E9.11104
G1 X53.271 Y146.795 E9.128
G1 X52.884 Y146.464 E9.14496
G1 X52.51 Y146.016 E9.1644
G1 X50.296 Y142.819 E9.29394
G1 X46.965 Y138.451 E9.47692
G1 X43.41 Y134.302 E9.65892
G1 X39.619 Y130.35 E9.84134
G1 X35.595 Y126.607 E10.0244
G1 X33.532 Y124.843 E10.11482
G1 X31.416 Y123.138 E10.20533
G1 X26.995 Y119.871 E10.38845
G1 X22.814 Y117.115 E10.55525
G1 X22.412 Y116.803 E10.5722
G1 X22.064 Y116.431 E10.58917
G1 X21.778 Y116.009 E10.60615
G1 X21.562 Y115.548 E10.62311
G1 X21.42 Y115.058 E10.6401
G1 X21.357 Y114.568 E10.65656
G1 X21.262 Y112.7 E10.71886
G1 X20.787 Y107.218 E10.90216
G1 X20.008 Y101.803 E11.08439
G1 X18.921 Y96.422 E11.26725
G1 X18.28 Y93.821 E11.35648
G1 X16.733 Y88.526 E11.54024
G1 X14.906 Y83.374 E11.72232
G1 X12.778 Y78.305 E11.90545
G1 X11.623 Y75.849 E11.99585
G1 X9.739 Y72.177 E12.13333
G1 X9.543 Y71.707 E12.15029
G1 X9.423 Y71.212 E12.16726
G1 X9.381 Y70.704 E12.18424
G1 X9.419 Y70.196 E12.20121
G1 X9.537 Y69.7 E12.21819
G1 X9.73 Y69.229 E12.23514
G1 X10.142 Y68.605 E12.26005
G1 X13.457 Y64.655 E12.43182
G1 X13.7 Y64.395 E12.44368
G1 X15.346 Y62.821 E12.51954
G1 X19.179 Y58.856 E12.70324
G1 X22.747 Y54.722 E12.88514
G1 X26.095 Y50.368 E13.0681
G1 X29.168 Y45.865 E13.24969
G1 X31.998 Y41.167 E13.43238
G1 X34.854 Y35.736 E13.63678
G1 X35.125 Y35.305 E13.65374
G1 X35.461 Y34.922 E13.67071
G1 F600 E11.92071
;MESH:
G0 F2625 X59.928 Y31.643
G0 X61.357 Y31.643
G0 X63.933 Y27.868
G0 X64.005 Y27.798
;TYPE:WALL-INNER
G1 F600 E13.67071
G1 F900 X69.856 Y21.902 E13.9474
G1 X70.032 Y21.724 E13.95574
G1 X70.209 Y21.901 E13.96112
G1 X76.034 Y27.737 E14.23578
G1 X78.233 Y25.601 E14.3379
G1 X78.657 Y25.19 E14.35757
G1 X78.657 Y25.78 E14.36817
G1 X78.657 Y25.781 E14.3682
G1 X78.657 Y31.657 E14.56394
G1 X61.343 Y31.657 E15.14067
G1 X61.343 Y25.7 E15.3391
G1 X61.343 Y25.699 E15.33914
G1 X61.343 Y25.089 E15.35945
G1 X61.771 Y25.524 E15.37038
G1 X64.005 Y27.798 E15.47656
G0 F2625 X63.933 Y27.868
G0 X61.581 Y24.659
G0 X69.997 Y15.527
G0 X69.997 Y15.627
G1 F900 X61.769 Y23.807 E15.86304
G1 X61.343 Y24.23 E15.88303
G1 X61.343 Y23.63 E15.89379
G1 X61.343 Y23.629 E15.89383
G1 X61.343 Y14.343 E16.20315
G1 X78.657 Y14.343 E16.77988
G1 X78.657 Y23.625 E17.08907
G1 X78.657 Y23.627 E17.08914
G1 X78.657 Y24.225 E17.10906
G1 X78.232 Y23.803 E17.11979
G1 X69.997 Y15.627 E17.50634
G0 F2625 X69.997 Y15.527
G0 X78.879 Y24.709
G0 X78.434 Y24.709
;TYPE:WALL-OUTER
G1 F900 X78.254 Y24.531 E17.51477
G1 X69.997 Y16.332 E17.90238
G1 X61.621 Y24.659 E18.2958
G1 X63.83 Y26.906 E18.40076
G1 X64.007 Y27.086 E18.40917
G1 X64.185 Y26.907 E18.41458
G1 X69.855 Y21.193 E18.68272
G1 X70.031 Y21.015 E18.69106
G1 X70.208 Y21.192 E18.69644
G1 X76.039 Y27.035 E18.97141
G1 X78.252 Y24.885 E19.07419
G1 X78.434 Y24.709 E19.0796
G0 F2625 X78.257 Y24.534
G0 X78.607 Y24.109
G0 X78.587 Y31.587
G0 X79.157 Y32.157
G1 F900 X60.843 Y32.157 E19.68965
G1 X60.843 Y13.843 E20.29969
G1 X79.157 Y13.843 E20.90974
G1 X79.157 Y32.157 E21.51979
G0 F2625 X78.907 Y32.157
G0 X78.587 Y31.587
G0 X78.167 Y31.167
;TYPE:SKIN
G1 F900 X61.833 Y31.167 E22.06388
G1 X61.833 Y26.286 E22.22647
G1 X64.003 Y28.496 E22.32964
G1 X70.032 Y22.418 E22.61481
G1 X76.028 Y28.425 E22.89753
G1 X78.167 Y26.348 E22.99684
G1 X78.167 Y31.167 E23.15736
G0 F2625 X77.865 Y26.954
G0 X77.903 Y26.991
G1 F900 X77.723 Y27.519 E23.18138
G0 F2625 X77.941 Y28.444
G1 F900 X77.148 Y27.65 E23.21876
G0 F2625 X76.789 Y27.999
G1 F900 X77.941 Y29.151 E23.27303
G0 F2625 X77.941 Y29.858
G1 F900 X76.431 Y28.347 E23.34419
G0 F2625 X76.071 Y28.695
G1 F900 X77.941 Y30.565 E23.43228
G0 F2625 X77.61 Y30.941
G1 F900 X69.719 Y23.05 E23.80401
G0 F2625 X69.367 Y23.405
G1 F900 X76.903 Y30.941 E24.15901
G0 F2625 X76.196 Y30.941
G1 F900 X69.015 Y23.76 E24.4973
G0 F2625 X68.662 Y24.115
G1 F900 X75.489 Y30.941 E24.81888
G0 F2625 X74.782 Y30.941
G1 F900 X68.31 Y24.47 E25.12374
G0 F2625 X67.959 Y24.825
G1 F900 X74.075 Y30.941 E25.41185
G0 F2625 X73.367 Y30.941
G1 F900 X67.607 Y25.18 E25.68322
G0 F2625 X67.255 Y25.535
G1 F900 X72.66 Y30.941 E25.93786
G0 F2625 X71.953 Y30.941
G1 F900 X66.902 Y25.89 E26.1758
G0 F2625 X66.55 Y26.245
G1 F900 X71.246 Y30.941 E26.39702
G0 F2625 X70.539 Y30.941
G1 F900 X66.198 Y26.6 E26.60151
G0 F2625 X65.846 Y26.955
G1 F900 X69.832 Y30.941 E26.78929
G0 F2625 X69.125 Y30.941
G1 F900 X65.494 Y27.31 E26.96034
G0 F2625 X65.142 Y27.665
G1 F900 X68.418 Y30.941 E27.11466
G0 F2625 X67.711 Y30.941
G1 F900 X64.79 Y28.02 E27.25226
G0 F2625 X64.437 Y28.375
G1 F900 X67.004 Y30.941 E27.37317
G0 F2625 X66.296 Y30.941
G1 F900 X64.085 Y28.73 E27.47732
G1 X63.997 Y28.642
G0 F2625 X62.057 Y28.823
G1 F900 X64.175 Y30.941 E27.5771
G0 F2625 X64.882 Y30.941
G1 F900 X62.057 Y28.115 E27.7102
G1 X61.969 Y28.027
G0 F2625 X62.057 Y29.53
G1 F900 X63.468 Y30.941 E27.77667
G0 F2625 X62.761 Y30.941
G1 F900 X62.057 Y30.237 E27.80983
G0 F2625 X62.057 Y27.408
G1 F900 X65.589 Y30.941 E27.97624
G1 X65.677 Y31.029
G0 F2625 X61.581 Y24.659
G0 X61.833 Y23.053
G1 F900 X61.833 Y14.833 E28.25005
G1 X78.167 Y14.833 E28.79415
G1 X78.167 Y23.049 E29.06782
G1 X69.997 Y14.937 E29.45133
G1 X61.833 Y23.053 E29.83479
G0 F2625 X62.438 Y22.133
G1 F900 X62.057 Y21.752 E29.85274
G0 F2625 X62.057 Y21.044
G1 F900 X62.792 Y21.78 E29.88739
G0 F2625 X63.147 Y21.428
G1 F900 X62.057 Y20.337 E29.93876
G0 F2625 X62.057 Y19.63
G1 F900 X63.501 Y21.075 E30.00681
G0 F2625 X63.856 Y20.723
G1 F900 X62.057 Y18.923 E30.09158
G0 F2625 X62.057 Y18.216
G1 F900 X64.21 Y20.37 E30.19302
G0 F2625 X64.565 Y20.018
G1 F900 X62.057 Y17.509 E30.3112
G0 F2625 X62.057 Y16.802
G1 F900 X64.92 Y19.665 E30.44607
G0 F2625 X65.275 Y19.313
G1 F900 X62.057 Y16.095 E30.59766
G0 F2625 X62.057 Y15.388
G1 F900 X65.629 Y18.96 E30.76593
G0 F2625 X65.984 Y18.608
G1 F900 X62.433 Y15.057 E30.93321
G0 F2625 X63.141 Y15.057
G1 F900 X66.338 Y18.255 E31.08384
G0 F2625 X66.693 Y17.903
G1 F900 X63.848 Y15.057 E31.21788
G0 F2625 X64.555 Y15.057
G1 F900 X67.047 Y17.55 E31.3353
G0 F2625 X67.402 Y17.198
G1 F900 X65.262 Y15.057 E31.43613
G0 F2625 X65.969 Y15.057
G1 F900 X67.757 Y16.845 E31.52036
G0 F2625 X68.112 Y16.493
G1 F900 X66.676 Y15.057 E31.58801
G0 F2625 X67.383 Y15.057
G1 F900 X68.466 Y16.14 E31.63903
G0 F2625 X68.821 Y15.788
G1 F900 X68.09 Y15.057 E31.67346
G0 F2625 X68.797 Y15.057
G1 F900 X69.175 Y15.435 E31.69127
G0 F2625 X70.919 Y15.057
G1 F900 X77.941 Y22.08 E32.02209
G0 F2625 X77.941 Y21.373
G1 F900 X71.626 Y15.057 E32.3196
G0 F2625 X72.333 Y15.057
G1 F900 X77.941 Y20.665 E32.58378
G0 F2625 X77.941 Y19.958
G1 F900 X73.04 Y15.057 E32.81465
G0 F2625 X73.747 Y15.057
G1 F900 X77.941 Y19.251 E33.01222
G0 F2625 X77.941 Y18.544
G1 F900 X74.454 Y15.057 E33.17649
G0 F2625 X75.161 Y15.057
G1 F900 X77.941 Y17.837 E33.30745
G0 F2625 X77.941 Y17.13
G1 F900 X75.869 Y15.057 E33.40508
G0 F2625 X76.576 Y15.057
G1 F900 X77.941 Y16.423 E33.46941
G0 F2625 X77.941 Y15.716
G1 F900 X77.283 Y15.057 E33.50043
G1 F600 E31.75043
G0 F2625 X78.65 Y24.207
G0 X80.072 Y24.207
G0 X80.06 Y33.06
G0 X78.65 Y36.576
G0 X78.65 Y38.011
G0 X107.457 Y59.939
G0 X107.527 Y60.009
;TYPE:WALL-INNER
G1 F600 E33.50043
G1 F900 X38.473 Y60.009 E35.80064
G1 X38.473 Y37.991 E36.53407
G1 X107.527 Y37.991 E38.83428
G1 X107.527 Y60.009 E39.56771
G0 F2625 X108.027 Y60.509
;TYPE:WALL-OUTER
G1 F900 X37.973 Y60.509 E41.90123
G1 X37.973 Y37.491 E42.66797
G1 X108.027 Y37.491 E45.0015
G1 X108.027 Y60.509 E45.76823
G0 F2625 X107.777 Y60.509
G0 X107.457 Y59.939
G0 X107.037 Y59.519
;TYPE:SKIN
G1 F900 X38.963 Y59.519 E48.0358
G1 X38.963 Y38.481 E48.73659
G1 X107.037 Y38.481 E51.00416
G1 X107.037 Y59.519 E51.70494
G0 F2625 X106.811 Y38.929
G1 F900 X106.588 Y38.706 E51.71544
G0 F2625 X105.881 Y38.706
G1 F900 X106.811 Y39.636 E51.75926
G0 F2625 X106.811 Y40.343
G1 F900 X105.174 Y38.706 E51.83637
G0 F2625 X104.467 Y38.706
G1 F900 X106.811 Y41.05 E51.94679
G0 F2625 X106.811 Y41.757
G1 F900 X103.76 Y38.706 E52.09052
G0 F2625 X103.053 Y38.706
G1 F900 X106.811 Y42.464 E52.26755
G0 F2625 X106.811 Y43.171
G1 F900 X102.345 Y38.706 E52.47791
G0 F2625 X101.638 Y38.706
G1 F900 X106.811 Y43.878 E52.72158
G0 F2625 X106.811 Y44.585
G1 F900 X100.931 Y38.706 E52.99855
G0 F2625 X100.224 Y38.706
G1 F900 X106.811 Y45.293 E53.30885
G0 F2625 X106.811 Y46
G1 F900 X99.517 Y38.706 E53.65245
G0 F2625 X98.81 Y38.706
G1 F900 X106.811 Y46.707 E54.02936
G0 F2625 X106.811 Y47.414
G1 F900 X98.103 Y38.706 E54.43958
G0 F2625 X97.396 Y38.706
G1 F900 X106.811 Y48.121 E54.8831
G0 F2625 X106.811 Y48.828
G1 F900 X96.689 Y38.706 E55.35993
G0 F2625 X95.981 Y38.706
G1 F900 X106.811 Y49.535 E55.87008
G0 F2625 X106.811 Y50.242
G1 F900 X95.274 Y38.706 E56.41355
G0 F2625 X94.567 Y38.706
G1 F900 X106.811 Y50.949 E56.99031
G0 F2625 X106.811 Y51.656
G1 F900 X93.86 Y38.706 E57.60038
G0 F2625 X93.153 Y38.706
G1 F900 X106.811 Y52.364 E58.24378
G0 F2625 X106.811 Y53.071
G1 F900 X92.446 Y38.706 E58.92049
G0 F2625 X91.739 Y38.706
G1 F900 X106.811 Y53.778 E59.6305
G0 F2625 X106.811 Y54.485
G1 F900 X91.032 Y38.706 E60.37382
G0 F2625 X90.325 Y38.706
G1 F900 X106.811 Y55.192 E61.15044
G0 F2625 X106.811 Y55.899
G1 F900 X89.618 Y38.706 E61.96037
G0 F2625 X88.91 Y38.706
G1 F900 X106.811 Y56.606 E62.80362
G0 F2625 X106.811 Y57.313
G1 F900 X88.203 Y38.706 E63.68018
G0 F2625 X87.496 Y38.706
G1 F900 X106.811 Y58.02 E64.59005
G0 F2625 X106.811 Y58.728
G1 F900 X86.789 Y38.706 E65.53325
G0 F2625 X86.082 Y38.706
G1 F900 X106.669 Y59.293 E66.50306
G0 F2625 X105.962 Y59.293
G1 F900 X85.375 Y38.706 E67.47287
G0 F2625 X84.668 Y38.706
G1 F900 X105.255 Y59.293 E68.44268
G0 F2625 X104.548 Y59.293
G1 F900 X83.961 Y38.706 E69.41249
G0 F2625 X83.254 Y38.706
G1 F900 X103.841 Y59.293 E70.38231
G0 F2625 X103.134 Y59.293
G1 F900 X82.546 Y38.706 E71.35214
G0 F2625 X81.839 Y38.706
G1 F900 X102.427 Y59.293 E72.32198
G0 F2625 X101.72 Y59.293
G1 F900 X81.132 Y38.706 E73.29181
G0 F2625 X80.425 Y38.706
G1 F900 X101.013 Y59.293 E74.26165
G0 F2625 X100.305 Y59.293
G1 F900 X79.718 Y38.706 E75.23146
G0 F2625 X79.011 Y38.706
G1 F900 X99.598 Y59.293 E76.20127
G0 F2625 X98.891 Y59.293
G1 F900 X78.304 Y38.706 E77.17108
G0 F2625 X77.597 Y38.706
G1 F900 X98.184 Y59.293 E78.14089
G0 F2625 X97.477 Y59.293
G1 F900 X76.89 Y38.706 E79.1107
G0 F2625 X76.182 Y38.706
G1 F900 X96.77 Y59.293 E80.08054
G0 F2625 X96.063 Y59.293
G1 F900 X75.475 Y38.706 E81.05037
G0 F2625 X74.768 Y38.706
G1 F900 X95.356 Y59.293 E82.02021
G0 F2625 X94.649 Y59.293
G1 F900 X74.061 Y38.706 E82.99004
G0 F2625 X73.354 Y38.706
G1 F900 X93.941 Y59.293 E83.95986
G0 F2625 X93.234 Y59.293
