;Generated by Cura LulzBot Edition GCodeWriter Version: 3.6.18
;FLAVOR:Marlin
;TIME:8965
;Filament used: 4.50963m
;Layer height: 0.38
;Generated with Cura_SteamEngine 3.6.18
M82 ;absolute extrusion mode
;This G-Code has been generated specifically for the LulzBot Mini with standard extruder
M73 P0 ; clear GLCD progress bar
M75 ; Start GLCD Timer
G26 ; clear potential 'probe fail' condition
M107 ; disable fans
M420 S0 ; disable leveling matrix
G90 ; absolute positioning
M82 ; set extruder to absolute mode
G92 E0 ; set extruder position to 0
M140 S60.0 ; start bed heating up
G28 ; home all axes
G0 X0 Y187 Z156 F200 ; move away from endstops
M109 R140 ;
G1 E-30 F75 ; retract filament
M109 R140 ; wait for extruder to reach wiping temp
G1 X45 Y173 F11520 ; move above wiper pad
G1 Z0 F1200 ; push nozzle into wiper
G1 X42 Y173 Z-.5 F4000             ; wiping
G1 X52 Y171 Z-.5 F4000             ; wiping
G1 X42 Y173 Z0 F4000               ; wiping
G1 X52 Y171 F4000                  ; wiping
G1 X42 Y173 F4000                  ; wiping
G1 X52 Y171 F4000                  ; wiping
G1 X42 Y173 F4000                  ; wiping
G1 X52 Y171 F4000                  ; wiping
G1 X57 Y173 F4000                  ; wiping
G1 X77 Y171 F4000                  ; wiping
G1 X57 Y173 F4000                  ; wiping
G1 X77 Y171 F4000                  ; wiping
G1 X57 Y173 F4000                  ; wiping
G1 X87 Y171 F4000                  ; wiping
G1 X77 Y173 F4000                  ; wiping
G1 X97 Y171 F4000                  ; wiping
G1 X77 Y173 F4000                  ; wiping
G1 X97 Y171 F4000                  ; wiping
G1 X77 Y173 F4000                  ; wiping
G1 X97 Y171 F4000                  ; wiping
G1 X107 Y173 F4000                 ; wiping
G1 X97 Y171 F4000                  ; wiping
G1 X107 Y173 F4000                 ; wiping
G1 X97 Y171 F4000                  ; wiping
G1 X107 Y173 F4000                 ; wiping
G1 X112 Y171 Z-0.5 F1000           ; wiping
G1 Z10 ; raise extruder
G28 X0 Y0 ; home X and Y
G0 X0 Y187 F200 ; move away from endstops
M109 R140 ; wait for extruder to reach probe temp
M204 S300 ; set probing acceleration
G29       ; start auto-leveling sequence
M420 S1   ; enable leveling matrix
M425 Z	  ; use measured Z backlash for compensation
M425 Z F0 ; turn off measured Z backlash compensation. (if activated in the quality settings, this command will automatically be ignored)
M204 S2000 ; restore standard acceleration
G28 X0 Y0 ; re-home to account for build variance of earlier mini builds
G0 X0 Y187 F200 ; move away from endstops
G0 Y152 F4000 ; move in front of wiper pad
G4 S1 ; pause
M400 ; wait for moves to finish
M117 Heating... ; progress indicator message on LCD
M109 R210  ; wait for extruder to reach printing temp
M190 R60.0 ; wait for bed to reach printing temp
G1 Z2 E0 F75 ; prime tiny bit of filament into the nozzle
M117 Mini Printing... ; progress indicator message on LCD

M221 S100 T0
G92 E0
G1 F600 E-1.75
;LAYER_COUNT:171
;LAYER:0
M107
G0 F2625 X36.218 Y39.393 Z0.425
;TYPE:SKIRT
G1 F600 E0
G1 F900 X36.595 Y39.05 E0.01698
G1 X37.024 Y38.768 E0.03408
G1 X43.48 Y35.22 E0.27947
G1 X48.087 Y32.292 E0.4613
G1 X52.534 Y29.097 E0.6437
G1 X56.803 Y25.648 E0.82651
G1 X60.844 Y21.989 E1.0081
G1 X64.861 Y17.91 E1.1988
G1 X65.246 Y17.576 E1.21578
G1 X65.679 Y17.306 E1.23277
G1 X66.148 Y17.107 E1.24974
G1 X66.642 Y16.984 E1.2667
G1 X67.177 Y16.94 E1.28458
G1 X86.808 Y16.941 E1.9385
G1 X87.316 Y16.981 E1.95547
G1 X87.812 Y17.1 E1.97246
G1 X88.282 Y17.295 E1.98941
G1 X88.717 Y17.561 E2.0064
G1 X89.107 Y17.894 E2.02348
G1 X94.012 Y22.805 E2.25469
G1 X98.1 Y26.418 E2.43642
G1 X102.405 Y29.809 E2.61897
G1 X106.883 Y32.945 E2.80107
G1 X111.524 Y35.818 E2.98289
G1 X116.944 Y38.74 E3.18799
G1 X117.372 Y39.017 E3.20498
G1 X117.751 Y39.356 E3.22192
G1 X118.121 Y39.822 E3.24174
G1 X119.823 Y42.424 E3.3453
G1 X123.028 Y46.88 E3.52814
G1 X126.478 Y51.145 E3.71087
G1 X130.155 Y55.199 E3.89318
G1 X132.044 Y57.115 E3.98281
G1 X136.077 Y60.867 E4.1663
G1 X140.134 Y64.246 E4.34217
G1 X140.543 Y64.653 E4.36139
G1 X143.861 Y68.604 E4.53325
G1 X144.157 Y69.019 E4.55023
G1 X144.384 Y69.474 E4.56717
G1 X144.538 Y69.96 E4.58415
G1 X144.614 Y70.464 E4.60113
G1 X144.61 Y70.974 E4.61812
G1 X144.526 Y71.476 E4.63507
G1 X144.365 Y71.96 E4.65206
G1 X143.994 Y72.614 E4.67711
G1 X142.288 Y74.944 E4.7733
G1 X139.247 Y79.496 E4.95566
G1 X136.465 Y84.217 E5.13819
G1 X133.952 Y89.094 E5.32094
G1 X131.719 Y94.104 E5.50365
G1 X130.711 Y96.646 E5.59474
G1 X129.789 Y99.19 E5.68488
G1 X128.514 Y103.107 E5.82209
G1 X128.319 Y103.577 E5.83904
G1 X128.053 Y104.012 E5.85602
G1 X127.722 Y104.399 E5.87299
G1 X127.319 Y104.741 E5.89059
G1 X122.7 Y108.057 E6.08
G1 X118.457 Y111.488 E6.26176
G1 X114.398 Y115.167 E6.44424
G1 X110.594 Y119.026 E6.62474
G1 X110.209 Y119.359 E6.6417
G1 X109.896 Y119.563 E6.65414
G1 X106.498 Y121.512 E6.78463
G1 X101.859 Y124.463 E6.96777
G1 X97.42 Y127.653 E7.14985
G1 X93.15 Y131.104 E7.33274
G1 X89.095 Y134.778 E7.51501
G1 X87.181 Y136.667 E7.60458
G1 X83.416 Y140.711 E7.78863
G1 X81.878 Y142.504 E7.86732
G1 X81.517 Y142.864 E7.8843
G1 X81.104 Y143.162 E7.90127
G1 X80.649 Y143.393 E7.91827
G1 X80.165 Y143.549 E7.9352
G1 X79.412 Y143.638 E7.96046
G1 X60.598 Y143.645 E8.58716
G1 X60.09 Y143.605 E8.60414
G1 X59.595 Y143.487 E8.62109
G1 X59.124 Y143.292 E8.63807
G1 X58.689 Y143.026 E8.65505
G1 X58.301 Y142.696 E8.67202
G1 X57.942 Y142.27 E8.69058
G1 X56.843 Y140.714 E8.75403
G1 X53.513 Y136.345 E8.93702
G1 X49.954 Y132.187 E9.11933
G1 X46.147 Y128.214 E9.30262
G1 X44.21 Y126.359 E9.39196
G1 X40.078 Y122.723 E9.5753
G1 X35.726 Y119.309 E9.75955
G1 X35.351 Y118.964 E9.77652
G1 X35.035 Y118.565 E9.79348
G1 X34.784 Y118.121 E9.81047
G1 X34.591 Y117.586 E9.82941
G1 X33.32 Y112.801 E9.99433
G1 X31.631 Y107.569 E10.17747
G1 X29.663 Y102.48 E10.35922
G1 X27.405 Y97.499 E10.54139
G1 X24.861 Y92.637 E10.72417
G1 X22.042 Y87.92 E10.90722
G1 X20.576 Y85.686 E10.99623
G1 X17.363 Y81.22 E11.17949
G1 X13.918 Y76.962 E11.36193
G1 X10.22 Y72.876 E11.54551
G1 X9.909 Y72.472 E11.56249
G1 X9.665 Y72.025 E11.57945
G1 X9.493 Y71.546 E11.5964
G1 X9.399 Y71.045 E11.61338
G1 X9.384 Y70.536 E11.63035
G1 X9.449 Y70.03 E11.64734
G1 X9.592 Y69.541 E11.66431
G1 X9.809 Y69.081 E11.68125
G1 X10.14 Y68.606 E11.70054
G1 X13.453 Y64.657 E11.87224
G1 X13.867 Y64.245 E11.8917
G1 X17.632 Y61.12 E12.05468
G1 X21.639 Y57.422 E12.23631
G1 X25.455 Y53.478 E12.41912
G1 X29.025 Y49.341 E12.60114
G1 X32.365 Y44.999 E12.78361
G1 X35.9 Y39.791 E12.99328
G1 X36.218 Y39.393 E13.01025
G1 F600 E11.26025
;MESH:
G0 F2625 X37.928 Y42.357
G0 X39.357 Y42.357
G0 X47.997 Y43.527
G0 X47.997 Y43.627
;TYPE:WALL-INNER
G1 F600 E13.01025
G1 F900 X39.769 Y51.807 E13.39673
G1 X39.343 Y52.23 E13.41672
G1 X39.343 Y51.63 E13.42748
G1 X39.343 Y51.629 E13.42752
G1 X39.343 Y42.343 E13.73684
G1 X56.657 Y42.343 E14.31357
G1 X56.657 Y51.625 E14.62276
G1 X56.657 Y51.627 E14.62282
G1 X56.657 Y52.225 E14.64274
G1 X56.232 Y51.803 E14.65348
G1 X47.997 Y43.627 E15.04003
G0 F2625 X47.997 Y43.527
G0 X39.581 Y52.659
G0 X41.933 Y55.868
G0 X42.005 Y55.798
G1 F900 X47.856 Y49.902 E15.31672
G1 X48.032 Y49.724 E15.32505
G1 X48.209 Y49.901 E15.33043
G1 X54.034 Y55.737 E15.6051
G1 X56.233 Y53.601 E15.70721
G1 X56.657 Y53.19 E15.72688
G1 X56.657 Y53.78 E15.73748
G1 X56.657 Y53.781 E15.73752
G1 X56.657 Y59.657 E15.93325
G1 X39.343 Y59.657 E16.50998
G1 X39.343 Y53.7 E16.70841
G1 X39.343 Y53.699 E16.70845
G1 X39.343 Y53.089 E16.72877
G1 X39.771 Y53.524 E16.73969
G1 X42.005 Y55.798 E16.84587
G0 F2625 X41.933 Y55.868
G0 X54.039 Y55.075
G0 X56.879 Y52.709
G0 X56.434 Y52.709
;TYPE:WALL-OUTER
G1 F900 X56.254 Y52.531 E16.85431
G1 X47.997 Y44.332 E17.24191
G1 X39.621 Y52.659 E17.63534
G1 X41.83 Y54.906 E17.7403
G1 X42.007 Y55.086 E17.74871
G1 X42.185 Y54.907 E17.75412
G1 X47.855 Y49.193 E18.02226
G1 X48.031 Y49.015 E18.0306
G1 X48.208 Y49.192 E18.03598
G1 X54.039 Y55.035 E18.31095
G1 X56.252 Y52.885 E18.41372
G1 X56.434 Y52.709 E18.41914
G0 F2625 X56.257 Y52.534
G0 X56.607 Y52.109
G0 X56.587 Y59.587
G0 X57.157 Y60.157
G1 F900 X38.843 Y60.157 E19.02919
G1 X38.843 Y41.843 E19.63923
G1 X57.157 Y41.843 E20.24928
G1 X57.157 Y60.157 E20.85932
G0 F2625 X56.907 Y60.157
G0 X56.587 Y59.587
G0 X56.167 Y59.167
;TYPE:SKIN
G1 F900 X39.833 Y59.167 E21.40342
G1 X39.833 Y54.286 E21.566
G1 X42.003 Y56.496 E21.66917
G1 X48.032 Y50.418 E21.95434
G1 X54.028 Y56.425 E22.23706
G1 X56.167 Y54.348 E22.33638
G1 X56.167 Y59.167 E22.4969
G0 F2625 X55.762 Y55.055
G0 X55.852 Y55.144
G1 F900 X55.672 Y55.672 E22.53076
G0 F2625 X55.942 Y56.649
G1 F900 X55.044 Y55.751 E22.57306
G0 F2625 X54.686 Y56.1
G1 F900 X55.942 Y57.356 E22.63223
G0 F2625 X55.942 Y58.063
G1 F900 X54.327 Y56.449 E22.70829
G1 X54.239 Y56.361
G0 F2625 X53.991 Y58.941
G1 F900 X46.913 Y51.863 E23.04172
G0 F2625 X47.265 Y51.508
G1 F900 X54.698 Y58.941 E23.39187
G0 F2625 X55.406 Y58.941
G1 F900 X47.617 Y51.153 E23.75877
G0 F2625 X47.97 Y50.798
G1 F900 X55.942 Y58.77 E24.13432
G1 X56.03 Y58.858
G0 F2625 X53.284 Y58.941
G1 F900 X46.561 Y52.218 E24.45102
G0 F2625 X46.209 Y52.573
G1 F900 X52.577 Y58.941 E24.75101
G0 F2625 X51.87 Y58.941
G1 F900 X45.857 Y52.928 E25.03427
G0 F2625 X45.505 Y53.283
G1 F900 X51.163 Y58.941 E25.3008
G0 F2625 X50.456 Y58.941
G1 F900 X45.153 Y53.638 E25.55062
G0 F2625 X44.8 Y53.993
G1 F900 X49.749 Y58.941 E25.78373
G0 F2625 X49.042 Y58.941
G1 F900 X44.448 Y54.348 E26.00012
G0 F2625 X44.096 Y54.703
G1 F900 X48.334 Y58.941 E26.19976
G0 F2625 X47.627 Y58.941
G1 F900 X43.744 Y55.058 E26.38269
G0 F2625 X43.392 Y55.413
G1 F900 X46.92 Y58.941 E26.54888
G0 F2625 X46.213 Y58.941
G1 F900 X43.04 Y55.768 E26.69836
G0 F2625 X42.688 Y56.123
G1 F900 X45.506 Y58.941 E26.83111
G0 F2625 X44.799 Y58.941
G1 F900 X42.335 Y56.478 E26.94716
G1 X42.247 Y56.39
G0 F2625 X40.057 Y56.321
G1 F900 X42.678 Y58.941 E27.0706
G0 F2625 X43.385 Y58.941
G1 F900 X40.057 Y55.613 E27.22738
G0 F2625 X40.057 Y54.906
G1 F900 X44.092 Y58.941 E27.41746
G1 X44.18 Y59.029
G0 F2625 X41.971 Y58.941
G1 F900 X40.057 Y57.028 E27.5076
G0 F2625 X40.057 Y57.735
G1 F900 X41.263 Y58.941 E27.56441
G0 F2625 X40.556 Y58.941
G1 F900 X40.057 Y58.442 E27.58792
G0 F2625 X39.581 Y52.659
G0 X39.833 Y51.053
G1 F900 X39.833 Y42.833 E27.86173
G1 X56.167 Y42.833 E28.40582
G1 X56.167 Y51.049 E28.6795
G1 X47.997 Y42.937 E29.06301
G1 X39.833 Y51.053 E29.44647
G0 F2625 X40.335 Y50.234
G1 F900 X40.057 Y49.957 E29.45954
G0 F2625 X40.69 Y49.882
G1 F900 X40.057 Y49.249 E29.48936
G0 F2625 X40.057 Y48.542
G1 F900 X41.044 Y49.53 E29.53588
G0 F2625 X41.399 Y49.177
G1 F900 X40.057 Y47.835 E29.5991
G0 F2625 X40.057 Y47.128
G1 F900 X41.753 Y48.825 E29.67902
G0 F2625 X42.108 Y48.472
G1 F900 X40.057 Y46.421 E29.77564
G0 F2625 X40.057 Y45.714
G1 F900 X42.463 Y48.12 E29.88898
G0 F2625 X42.818 Y47.767
G1 F900 X40.057 Y45.007 E30.01902
G0 F2625 X40.057 Y44.3
G1 F900 X43.172 Y47.415 E30.16576
G0 F2625 X43.526 Y47.062
G1 F900 X40.057 Y43.593 E30.32918
G0 F2625 X40.229 Y43.057
G1 F900 X43.881 Y46.71 E30.50124
G0 F2625 X44.235 Y46.357
G1 F900 X40.936 Y43.057 E30.65667
G0 F2625 X41.643 Y43.057
G1 F900 X44.59 Y46.005 E30.79552
G0 F2625 X44.945 Y45.652
G1 F900 X42.35 Y43.057 E30.91777
G0 F2625 X43.057 Y43.057
G1 F900 X45.3 Y45.3 E31.02343
G0 F2625 X45.654 Y44.947
G1 F900 X43.764 Y43.057 E31.11246
G0 F2625 X44.472 Y43.057
G1 F900 X46.008 Y44.594 E31.18485
G0 F2625 X46.363 Y44.242
G1 F900 X45.179 Y43.057 E31.24065
G0 F2625 X45.886 Y43.057
G1 F900 X46.717 Y43.889 E31.27982
G0 F2625 X46.832 Y43.297
G1 F900 X47.363 Y43.12 E31.3084
G0 F2625 X47.427 Y43.184
G0 X48.714 Y43.057
G1 F900 X55.941 Y50.284 E31.64885
G0 F2625 X55.941 Y49.577
G1 F900 X49.421 Y43.057 E31.95599
G0 F2625 X50.128 Y43.057
G1 F900 X55.941 Y48.87 E32.22983
G0 F2625 X55.941 Y48.163
G1 F900 X50.836 Y43.057 E32.47034
G0 F2625 X51.543 Y43.057
G1 F900 X55.941 Y47.456 E32.67755
G0 F2625 X55.941 Y46.748
G1 F900 X52.25 Y43.057 E32.85142
G0 F2625 X52.957 Y43.057
G1 F900 X55.941 Y46.041 E32.99199
G0 F2625 X55.941 Y45.334
G1 F900 X53.664 Y43.057 E33.09926
G0 F2625 X54.371 Y43.057
G1 F900 X55.941 Y44.627 E33.17322
G0 F2625 X55.941 Y43.92
G1 F900 X55.078 Y43.057 E33.21387
G0 F2625 X55.785 Y43.057
G1 F900 X55.941 Y43.213 E33.22122
G1 F600 E31.47122
G0 F2625 X56.643 Y42.357
G0 X58.072 Y42.357
G0 X62.202 Y39.437
G0 X63.631 Y39.437
G0 X65.182 Y39.381
G0 X65.252 Y39.451
;TYPE:WALL-INNER
G1 F600 E33.22122
G1 F900 X63.617 Y39.451 E33.27568
G1 X63.617 Y29.679 E33.60119
G1 X65.252 Y29.679 E33.65565
G1 X65.252 Y39.451 E33.98116
G0 F2625 X65.752 Y39.951
;TYPE:WALL-OUTER
G1 F900 X63.117 Y39.951 E34.06893
G1 X63.117 Y29.179 E34.42775
G1 X65.752 Y29.179 E34.51553
G1 X65.752 Y39.951 E34.87435
G0 F2625 X65.502 Y39.951
G0 X65.182 Y39.381
G0 X64.762 Y38.961
;TYPE:SKIN
G1 F900 X64.107 Y38.961 E34.89616
G1 X64.107 Y30.169 E35.18903
G1 X64.762 Y30.169 E35.21085
G1 X64.762 Y38.961 E35.50371
G0 F2625 X64.433 Y38.27
G1 F900 X64.433 Y37.563 E35.51434
G1 X64.435 Y30.494 E35.62066
G0 F2625 X64.335 Y30.394
G1 F600 E33.87066
G0 F2625 X65.238 Y39.437
G0 X65.238 Y40.866
G0 X66.511 Y45.612
G0 X67.036 Y46.94
G0 X66.368 Y50.444
G0 X66.438 Y50.514
;TYPE:WALL-INNER
G1 F600 E35.62066
G1 F900 X66.438 Y57.069 E35.83901
G1 X65.821 Y57.069 E35.85956
G1 X65.821 Y47.651 E36.17328
G1 X66.719 Y47.651 E36.20319
G1 X66.937 Y47.008 E36.2258
G1 X67.026 Y46.923 E36.2299
G1 X67.918 Y46.633 E36.26115
G1 X67.918 Y42.023 E36.41471
G1 X86.077 Y42.023 E37.01959
G1 X86.077 Y50.514 E37.30243
G1 X66.438 Y50.514 E37.95661
G0 F2625 X66.938 Y51.014
;TYPE:WALL-OUTER
G1 F900 X66.938 Y57.569 E38.17496
G1 X65.321 Y57.569 E38.22882
G1 X65.321 Y47.151 E38.57585
G1 X66.361 Y47.151 E38.61049
G1 X66.503 Y46.732 E38.62523
G1 X66.762 Y46.484 E38.63718
G1 X67.418 Y46.27 E38.66016
G1 X67.418 Y41.523 E38.81828
G1 X86.577 Y41.523 E39.45648
G1 X86.577 Y51.014 E39.77263
G1 X66.938 Y51.014 E40.42681
G0 F2625 X66.938 Y51.264
G0 X66.338 Y51.264
G0 X66.311 Y50.024
;TYPE:SKIN
G1 F900 X66.311 Y48.141 E40.48953
G1 X67.07 Y48.141 E40.51481
G1 X67.343 Y47.335 E40.54316
G1 X68.408 Y46.989 E40.58046
G1 X68.408 Y42.513 E40.72956
G1 X85.587 Y42.513 E41.3018
G1 X85.587 Y50.024 E41.55199
G1 X66.311 Y50.024 E42.19408
G0 F2625 X66.769 Y49.799
G1 F900 X66.535 Y49.564 E42.20513
G0 F2625 X66.535 Y48.857
G1 F900 X67.477 Y49.799 E42.2495
G0 F2625 X68.184 Y49.799
G1 F900 X66.75 Y48.366 E42.31703
G0 F2625 X67.287 Y48.195
G1 F900 X68.891 Y49.799 E42.3926
G0 F2625 X69.598 Y49.799
G1 F900 X67.467 Y47.668 E42.49298
G0 F2625 X67.897 Y47.391
G1 F900 X70.305 Y49.799 E42.60642
G0 F2625 X71.012 Y49.799
G1 F900 X68.432 Y47.219 E42.72796
G0 F2625 X68.632 Y46.712
G1 F900 X71.719 Y49.799 E42.87338
G0 F2625 X72.426 Y49.799
G1 F900 X68.632 Y46.005 E43.05211
G0 F2625 X68.632 Y45.297
G1 F900 X73.133 Y49.799 E43.26416
G0 F2625 X73.841 Y49.799
G1 F900 X68.632 Y44.59 E43.50955
G0 F2625 X68.632 Y43.883
G1 F900 X74.548 Y49.799 E43.78824
G0 F2625 X75.255 Y49.799
G1 F900 X68.632 Y43.176 E44.10024
G0 F2625 X68.901 Y42.738
G1 F900 X75.962 Y49.799 E44.43286
G0 F2625 X76.669 Y49.799
G1 F900 X69.608 Y42.738 E44.76549
G0 F2625 X70.315 Y42.738
G1 F900 X77.376 Y49.799 E45.09812
G0 F2625 X78.083 Y49.799
G1 F900 X71.022 Y42.738 E45.43075
G0 F2625 X71.729 Y42.738
G1 F900 X78.79 Y49.799 E45.76338
G0 F2625 X79.497 Y49.799
G1 F900 X72.436 Y42.738 E46.09601
G0 F2625 X73.143 Y42.738
G1 F900 X80.205 Y49.799 E46.42866
G0 F2625 X80.912 Y49.799
G1 F900 X73.85 Y42.738 E46.76132
G0 F2625 X74.558 Y42.738
G1 F900 X81.619 Y49.799 E47.09395
G0 F2625 X82.326 Y49.799
G1 F900 X75.265 Y42.738 E47.42658
G0 F2625 X75.972 Y42.738
G1 F900 X83.033 Y49.799 E47.75921
G0 F2625 X83.74 Y49.799
G1 F900 X76.679 Y42.738 E48.09183
G0 F2625 X77.386 Y42.738
G1 F900 X84.447 Y49.799 E48.42446
G0 F2625 X85.154 Y49.799
G1 F900 X78.093 Y42.738 E48.75709
G0 F2625 X78.8 Y42.738
G1 F900 X85.361 Y49.298 E49.06615
G0 F2625 X85.361 Y48.591
G1 F900 X79.507 Y42.738 E49.34189
G0 F2625 X80.214 Y42.738
G1 F900 X85.361 Y47.884 E49.58433
G0 F2625 X85.361 Y47.177
G1 F900 X80.922 Y42.738 E49.79344
G0 F2625 X81.629 Y42.738
G1 F900 X85.361 Y46.47 E49.96925
G0 F2625 X85.361 Y45.763
